packages/foundations/assets/icons/functional/images/human/restricted_mobility_toilet_28.svg

<svg width="28" height="28" viewBox="0 0 28 28" fill="none" xmlns="http://www.w3.org/2000/svg">
<g clip-path="url(#clip0_185_1151)">
<path fill-rule="evenodd" clip-rule="evenodd" d="M3.50525 19.8292C3.50525 18.6332 3.9249 17.4372 4.74329 16.4929C4.93211 16.283 5.16294 16.1991 5.39376 16.1991C5.91832 16.1991 6.27506 16.5978 6.27506 17.0804C6.27506 17.2693 6.21206 17.4581 6.08615 17.626C5.56159 18.2345 5.24685 19.0319 5.24685 19.8292C5.24685 21.6758 6.71562 23.1991 8.56222 23.1991C9.67426 23.1991 10.7025 22.683 11.3529 21.8017C11.5418 21.5498 11.8146 21.4239 12.0664 21.4239C12.528 21.4239 12.9686 21.7807 12.9686 22.3052C12.9686 22.4941 12.9057 22.683 12.7798 22.8298C11.7936 24.1517 10.2618 24.9491 8.56222 24.9491C5.83441 24.9491 3.50525 22.704 3.50525 19.8292ZM6.5688 13.5762C6.5688 13.0936 6.96745 12.6949 7.4501 12.6949H8.07957C9.08679 12.6949 9.96809 13.2405 10.2618 14.1638L10.3457 14.4491H13.3464C13.8289 14.4491 14.2277 14.8352 14.2277 15.3178C14.2277 15.8005 13.8289 16.1991 13.3464 16.1991H10.8703L11.3949 17.9491H14.4585C14.8361 17.9491 15.13 18.1716 15.2768 18.5283L17.1863 23.0606C17.2282 23.1445 17.2492 23.2495 17.2492 23.3544C17.2492 23.7741 16.9135 24.2147 16.3679 24.2147C15.9903 24.2147 15.6964 24.0049 15.5496 23.6482L13.8499 19.7033H10.7445C10.3667 19.7033 10.01 19.4515 9.90509 19.0739L8.64614 14.8143C8.56222 14.5414 8.45731 14.4365 8.07957 14.4365H7.4501C6.96745 14.4365 6.5688 14.0589 6.5688 13.5762ZM6.5688 9.21173C6.5688 8.24652 7.36619 7.44913 8.3314 7.44913C9.29661 7.44913 10.073 8.24652 10.073 9.21173C10.073 10.1769 9.29661 10.9533 8.3314 10.9533C7.36619 10.9533 6.5688 10.1769 6.5688 9.21173ZM12.0933 3.85015C12.0933 3.3899 12.5051 3.09924 12.8926 3.09924C13.2075 3.09924 13.5344 3.29022 13.6193 3.68056L14.2913 6.77108L15.0484 3.65637C15.1372 3.291 15.4843 3.09924 15.7992 3.09924C16.1141 3.09924 16.4616 3.28379 16.5501 3.65637L17.2906 6.78255L17.955 3.68056C18.0438 3.26705 18.3668 3.09924 18.6816 3.09924C19.0933 3.09924 19.4809 3.3899 19.4809 3.85015C19.4809 3.92285 19.476 3.994 19.4567 4.0681L18.0518 9.46955C17.9513 9.85617 17.6158 10.0267 17.301 10.0267C16.9861 10.0267 16.6589 9.85392 16.5501 9.46955L15.775 6.73255L14.9999 9.46955C14.8893 9.8602 14.5639 10.0267 14.249 10.0267C13.9342 10.0267 13.5975 9.83222 13.4982 9.44537L12.1175 4.0681C12.0985 3.99393 12.0933 3.92285 12.0933 3.85015ZM19.8201 6.58715C19.8201 3.3899 21.7093 3.05087 22.5329 3.05087C23.0173 3.05087 23.5259 3.14776 23.9862 3.36571C24.3252 3.51104 24.4706 3.77744 24.4706 4.04392C24.4706 4.45565 24.1557 4.86745 23.7197 4.86745C23.6228 4.86745 23.5017 4.84319 23.4048 4.79483C23.1384 4.67368 22.8719 4.60105 22.6055 4.60105C22.2664 4.60105 21.3702 4.60105 21.3702 6.58715C21.3702 8.50069 22.1695 8.50069 22.6055 8.50069C22.8962 8.47651 23.1868 8.4038 23.4532 8.30692C23.5501 8.28274 23.647 8.25848 23.7439 8.25848C24.1799 8.25848 24.4948 8.67028 24.4948 9.08201C24.4948 9.37267 24.3495 9.63914 23.9862 9.7844C23.5259 9.9298 23.0415 10.0267 22.5571 10.0509C21.5397 10.0509 19.8201 9.59062 19.8201 6.58715Z" fill="#1A1C1F"/>
</g>
<defs>
<clipPath id="clip0_185_1151">
<rect width="28" height="28" fill="white"/>
</clipPath>
</defs>
</svg>

<svg xmlns="http://www.w3.org/2000/svg" width="28" height="28" fill="none"><g clip-path="url(#a)"><path fill="#1A1C1F" fill-rule="evenodd" d="M3.505 19.83c0-1.197.42-2.393 1.238-3.337a.85.85 0 0 1 .65-.294.86.86 0 0 1 .882.881.9.9 0 0 1-.189.546 3.43 3.43 0 0 0-.84 2.203c0 1.847 1.47 3.37 3.316 3.37a3.45 3.45 0 0 0 2.79-1.397.9.9 0 0 1 .714-.378c.462 0 .903.357.903.881a.8.8 0 0 1-.19.525 5.23 5.23 0 0 1-4.217 2.12c-2.728 0-5.057-2.246-5.057-5.12m3.064-6.254c0-.482.398-.881.881-.881h.63c1.007 0 1.888.546 2.182 1.469l.084.285h3c.483 0 .882.386.882.869a.887.887 0 0 1-.882.881H10.87l.525 1.75h3.064c.377 0 .671.223.818.58l1.91 4.532a.7.7 0 0 1 .062.293c0 .42-.335.86-.881.86-.378 0-.672-.21-.818-.566l-1.7-3.945h-3.105a.875.875 0 0 1-.84-.63l-1.259-4.259c-.084-.273-.189-.377-.566-.377h-.63a.87.87 0 0 1-.881-.86m0-4.364c0-.965.797-1.763 1.762-1.763.966 0 1.742.798 1.742 1.763s-.776 1.741-1.742 1.741c-.965 0-1.762-.776-1.762-1.741m5.524-5.362c0-.46.412-.75.8-.75.314 0 .641.19.726.58l.672 3.091.757-3.115c.09-.365.436-.557.751-.557s.663.185.751.557l.74 3.127.665-3.102c.089-.414.412-.582.727-.582.411 0 .799.29.799.751a.9.9 0 0 1-.024.218L18.052 9.47c-.1.386-.436.557-.751.557s-.642-.173-.75-.557l-.776-2.737L15 9.47c-.11.39-.436.557-.751.557a.77.77 0 0 1-.75-.582l-1.382-5.377a1 1 0 0 1-.024-.218m7.727 2.737c0-3.197 1.89-3.536 2.713-3.536.484 0 .993.097 1.453.315.34.145.485.411.485.678 0 .412-.315.823-.751.823a.75.75 0 0 1-.315-.072 1.9 1.9 0 0 0-.8-.194c-.339 0-1.235 0-1.235 1.986 0 1.914.8 1.914 1.235 1.914.291-.024.582-.097.848-.194.097-.024.194-.049.29-.049.437 0 .752.412.752.824 0 .29-.146.557-.509.702-.46.146-.945.243-1.429.267-1.017 0-2.737-.46-2.737-3.464" clip-rule="evenodd"/></g><defs><clipPath id="a"><path fill="#fff" d="M0 0h28v28H0z"/></clipPath></defs></svg>
